svg/AI1.svg

<svg width="36" height="36" viewBox="0 0 36 36" fill="none" xmlns="http://www.w3.org/2000/svg"><rect x="-48" y="-9.5" width="132" height="87" rx="11.5" stroke="#FF8D28"/><g opacity="0.8"><rect width="36" height="36" rx="12" fill="#B0D1FE"/><path fill-rule="evenodd" clip-rule="evenodd" d="M27.2865 35.9996H23.3803L23.1488 33.4371H18.2709L16.9994 35.9996H12.9086L21.8773 19.7076H24.8598L27.2865 35.9996ZM32.6947 35.9996H28.8578L32.1635 19.7076H36.0004L32.6947 35.9996ZM19.8432 30.3482H22.848L22.3402 25.5426L19.8432 30.3482ZM11.6254 13.8316C11.7072 13.4035 12.3268 13.4035 12.4086 13.8316L12.7797 15.774C13.0844 17.3676 14.3435 18.614 15.9535 18.9156L17.9164 19.2838C18.3485 19.365 18.3485 19.977 17.9164 20.0582L15.9535 20.4264C14.3435 20.728 13.0843 21.9743 12.7797 23.568L12.4086 25.5103C12.3268 25.9384 11.7072 25.9384 11.6254 25.5103L11.2543 23.568C10.9497 21.9742 9.68961 20.7279 8.07949 20.4264L6.11757 20.0582C5.68509 19.9772 5.68509 19.3648 6.11757 19.2838L8.07949 18.9156C9.68959 18.6141 10.9496 17.3678 11.2543 15.774L11.6254 13.8316ZM23.0502 8.70467C23.1086 8.3989 23.5513 8.3989 23.6098 8.70467L23.8754 10.0924C24.0931 11.2305 24.9922 12.121 26.142 12.3365L27.5443 12.5992C27.853 12.6572 27.8531 13.095 27.5443 13.1529L26.142 13.4146C24.9922 13.6301 24.0931 14.5207 23.8754 15.6588L23.6098 17.0465C23.5513 17.3522 23.1086 17.3522 23.0502 17.0465L22.7855 15.6588C22.5678 14.5206 21.6679 13.63 20.518 13.4146L19.1166 13.1529C18.8077 13.0951 18.8077 12.6571 19.1166 12.5992L20.518 12.3365C21.668 12.1211 22.5679 11.2307 22.7855 10.0924L23.0502 8.70467Z" fill="#0464E4"/></g><defs><clipPath id="clip0_1970_14250"><rect width="36" height="36" rx="12" fill="white"/></clipPath></defs></svg>

<svg fill="none" viewBox="0 0 36 36"><rect width="132" height="87" x="-48" y="-9.5" stroke="#FF8D28" rx="11.5"/><g opacity=".8"><rect width="36" height="36" fill="#B0D1FE" rx="12"/><path fill="#0464E4" fill-rule="evenodd" d="M27.287 36H23.38l-.231-2.563H18.27L16.999 36h-4.09l8.968-16.292h2.983zm5.408 0h-3.837l3.305-16.292H36zm-12.852-5.652h3.005l-.508-4.805zm-8.218-16.516c.082-.429.702-.429.784 0l.37 1.942a3.96 3.96 0 0 0 3.175 3.142l1.962.368c.433.081.433.693 0 .774l-1.963.368a3.96 3.96 0 0 0-3.173 3.142l-.371 1.942c-.082.428-.702.428-.784 0l-.37-1.942a3.965 3.965 0 0 0-3.176-3.142l-1.961-.368c-.433-.08-.433-.693 0-.774l1.961-.368a3.965 3.965 0 0 0 3.175-3.142zM23.05 8.705c.059-.306.501-.306.56 0l.265 1.387a2.83 2.83 0 0 0 2.267 2.244l1.402.263c.309.058.31.496 0 .554l-1.402.262a2.83 2.83 0 0 0-2.267 2.244l-.265 1.388c-.059.305-.501.305-.56 0l-.265-1.388a2.83 2.83 0 0 0-2.267-2.244l-1.401-.262c-.31-.058-.31-.496 0-.554l1.401-.263a2.83 2.83 0 0 0 2.267-2.244z" clip-rule="evenodd"/></g></svg>
